img/icon-fb-white.svg

<svg width="128" height="128" viewBox="0 0 128 128" fill="none" xmlns="http://www.w3.org/2000/svg">
<path fill-rule="evenodd" clip-rule="evenodd" d="M91.9948 45.0722H74.3617V32.9203C75.6679 21.4435 94.0847 23.6038 94.0847 23.6038V22.7937V22.6587V3.75572C93.4316 3.62069 57.5123 -5.2907 50.3284 23.0637V23.1988C49.1529 26.7093 49.2835 42.9118 49.2835 44.9371H33.7402V66.6755H50.0672V125.68H73.8393V66.6755H91.9948L94.0847 44.9371H91.9948V45.0722Z" fill="white"/>
</svg>

<svg width="128" height="128" fill="none" xmlns="http://www.w3.org/2000/svg"><path fill-rule="evenodd" clip-rule="evenodd" d="M91.995 45.072H74.362V32.92c1.306-11.477 19.723-9.316 19.723-9.316V3.756c-.653-.135-36.573-9.047-43.757 19.308v.135c-1.175 3.51-1.045 19.713-1.045 21.738H33.74v21.739h16.327v59.004H73.84V66.675h18.156l2.09-21.738h-2.09v.135z" fill="#fff"/></svg>
